X:39
T:Drunken Sailor (a)
M:2/4
L:1/16
K:DMIX
{F}A4 {F}A4|{F}A2D2 F2A2|G2G2 G2G2|G2C2 E2G2|
{F}A4 {F}A4|{F}A2B2 c2d2|c2A2 G2E2|D4   D4  |
 A2AA  A2AA|   A2D2 F2A2|G2GG G2GG|G2C2 E2G2|
 A2AA  A2AA|   A2B2 c2d2|c2A2 G2E2|D4   D4 ||
